src/16/actions/news-unsubscribe.svg

<svg xmlns="http://www.w3.org/2000/svg" width="16" height="16" viewBox="0 0 16 16">
 <defs>
  <style id="current-color-scheme" type="text/css">
   .ColorScheme-Text { color:#565656; } .ColorScheme-Highlight { color:#5294e2; }
  </style>
 </defs>
 <path style="fill:currentColor" class="ColorScheme-Text" d="M 0 1 L 0 15 C 3.4739 14.999 6.947775 14.999953 10.421875 15.001953 L 10.292969 14.873047 C 9.9025688 14.483047 9.9025688 13.849984 10.292969 13.458984 L 10.751953 13 L 1 13 L 1 12 L 10.751953 12 L 10.292969 11.541016 C 9.9025688 11.150016 9.9025688 10.516953 10.292969 10.126953 L 10.419922 10 L 9 10 L 9 9 L 15 9 L 15 9.015625 C 15.319 8.961525 15.644047 9.0647687 15.873047 9.2929688 L 16 9.4199219 L 16 1.0039062 C 10.667 1.0059063 5.333 0.998 0 1 z M 6 3 L 6 9.9960938 L 1 10 L 1 3.0039062 L 6 3 z M 9 3 L 15 3 L 15 4 L 9 4 L 9 3 z M 9 6 L 15 6 L 15 7 L 9 7 L 9 6 z M 11.833984 10 L 11 10.833984 L 12.666016 12.5 L 11 14.166016 L 11.833984 15 L 13.5 13.333984 L 15.166016 15 L 16 14.166016 L 14.333984 12.5 L 16 10.833984 L 15.166016 10 L 13.5 11.666016 L 11.833984 10 z"/>
</svg>

<svg xmlns="http://www.w3.org/2000/svg" width="16" height="16"><defs><style id="current-color-scheme" type="text/css"></style></defs><path d="M0 1v14c3.474-.001 6.948 0 10.422.002l-.129-.129a1 1 0 0 1 0-1.414l.459-.459H1v-1h9.752l-.459-.459a1 1 0 0 1 0-1.414L10.42 10H9V9h6v.016a1 1 0 0 1 .873.277L16 9.42V1.004C10.667 1.006 5.333.998 0 1zm6 2v6.996L1 10V3.004L6 3zm3 0h6v1H9V3zm0 3h6v1H9V6zm2.834 4l-.834.834 1.666 1.666L11 14.166l.834.834 1.666-1.666L15.166 15l.834-.834-1.666-1.666L16 10.834 15.166 10 13.5 11.666 11.834 10z" fill="currentColor" color="#565656"/></svg>
